X: 1
T: Miss Lyall (Panmure House)
C: Trad
L: 1/8
M: 4/4
R: Strathspey
S: Paddledoo
S: Pinewoods Collection
K: G
c/B/ \
[| "Am"A<A, A,>B, C>D E>F | "G"G<G B>A G2 c>B | "Am"A<A, A,>B, C>D E>A | "E"c>A B>^G "Am"A3 c/B/ |
|  "Am"A<A, A,>B, C>D E>F | "G"G<G B>A G3 c/d/ | "Am"e>c d>B "F"c>A B>G | "E"E>A c/B/A/^G/ "Am"A3 c/B/ |]
[| "Am"A<a a>b "G"g>a b/a/g/f/ | "Am"A<a a>b "G"g2 f>g | "Am"A<a a>b "G"g>a b/a/g/f/ | "E"e>c e>B "Am"A3 c/B/ |
|  "Am"A<a a>b "G"g>a b/a/g/f/ | "Am"A<a a>b "G"g2 f>g | "Em"(3agf (3gab "Dm"(3edc (3Bce | "E"e>c d<B "Am"A3 |]
